; HEADER_BLOCK_START
; generated by OrcaSlicer 2.3.0 on 2025-10-23 at 20:10:00
; total layer number: 54
;_GP_TOTAL_LAYER_NUMBER_PLACEHOLDER
; filament_density: 1.24
; filament_diameter: 1.75
; max_z_height: 10.80
; HEADER_BLOCK_END

; THUMBNAIL_BLOCK_START

;
; THUMBNAIL_BLOCK_END

; external perimeters extrusion width = 0.45mm
; perimeters extrusion width = 0.45mm
; infill extrusion width = 0.45mm
; solid infill extrusion width = 0.45mm
; top infill extrusion width = 0.40mm
; first layer extrusion width = 0.42mm

; EXECUTABLE_BLOCK_START
M73 P0 R9
M201 X2000 Y2000 Z300 E5000
M203 X200 Y200 Z12 E120
M204 P2000 R2500 T2000
M205 X9.00 Y9.00 Z0.20 E2.50 ; sets the jerk limits, mm/sec
;TYPE:Custom
M862.3 P "MK3S" ; printer model check
M862.1 P0.4 ; nozzle diameter check
M115 U3.13.0 ; tell printer latest fw version
G90 ; use absolute coordinates
M83 ; extruder relative mode
M104 S220 ; set extruder temp
M140 S60 ; set bed temp
M190 S60 ; wait for bed temp
M109 S220 ; wait for extruder temp
G28 W ; home all without mesh bed level
G80 ; mesh bed leveling

G1 Z0.2 F720
G1 Y-3 F1000 ; go outside print area
G92 E0
G1 X60 E9 F1000 ; intro line
G1 X100 E12.5 F1000 ; intro line

G92 E0
M221 S95
G90
G21
M83 ; use relative distances for extrusion
; filament start gcode
M900 K0.05 ; Filament gcode LA 1.5
M900 K30 ; Filament gcode LA 1.0
M106 S0
;LAYER_CHANGE
;Z:0.2
;HEIGHT:0.2
;BEFORE_LAYER_CHANGE
;0.2
G92 E0

G1 E-.8 F1800
M73 P1 R9
;AFTER_LAYER_CHANGE
;0.2
;_SET_FAN_SPEED_CHANGING_LAYER
M204 S800
G1 X108.779 Y92.163 F10800
G1 Z.6 F720
G1 Z.2
G1 E.8 F1800
;TYPE:Skirt
;WIDTH:0.42
G1 F3000
G1 X108.977 Y92.102 E.00637
G1 X109.859 Y91.951 E.02751
G1 X110.848 Y91.915 E.0304
G1 X129.605 Y92.725 E.57687
G1 X141.039 Y93.769 E.35281
G1 X141.744 Y93.907 E.02209
G1 X142.572 Y94.184 E.02682
G1 X143.721 Y94.811 E.04019
G1 X144.712 Y95.664 E.04019
G1 X145.579 Y96.841 E.04491
G1 X146.102 Y98.04 E.04019
G1 X146.361 Y99.322 E.04019
G1 X146.381 Y112.195 E.39554
G1 X146.305 Y112.909 E.02209
G1 X146.102 Y113.758 E.02682
G1 X145.781 Y114.57 E.02682
G1 X145.35 Y115.329 E.02682
G1 X144.402 Y116.441 E.04491
G1 X143.353 Y117.223 E.04019
G1 X142.163 Y117.767 E.04019
G1 X141.469 Y117.955 E.02209
G1 X140.605 Y118.073 E.02682
G1 X127.732 Y118.069 E.39555
G1 X126.298 Y117.787 E.04491
G1 X125.488 Y117.461 E.02682
G1 X124.765 Y117.046 E.02561
G1 X106.545 Y104.59 E.67818
G1 X105.325 Y103.482 E.05064
G1 X104.477 Y102.267 E.04552
G1 X104.097 Y101.456 E.02751
G1 X103.823 Y100.604 E.02751
G1 X103.661 Y99.723 E.02751
G1 X103.613 Y98.8 E.02839
G1 X103.728 Y97.632 E.03607
G1 X103.946 Y96.764 E.02751
G1 X104.274 Y95.931 E.02751
G1 X104.706 Y95.146 E.02751
G1 X105.234 Y94.423 E.02751
G1 X105.85 Y93.774 E.02751
G1 X106.545 Y93.208 E.02751
G1 X107.306 Y92.736 E.02751
G1 X108.121 Y92.366 E.02751
G1 X108.74 Y92.175 E.01991
; printing object 20251012_Laser_Lens_Standoff id:0 copy 0
G1 E-.56 F1800
;WIPE_START
G1 F3000
G1 X108.977 Y92.102 E-.05939
G1 X109.718 Y91.975 E-.18061
;WIPE_END
G1 X111.83 Y99.309 Z.6 F10800
G1 X112.858 Y102.881 Z.6
G1 Z.2 F720
G1 E.8 F1800
;TYPE:Outer wall
;WIDTH:0.419999
G1 F1200
G1 X112.668 Y102.992 E.00678
G1 X112.115 Y103.227 E.01845
G1 X111.562 Y103.383 E.01766
G1 X110.981 Y103.469 E.01807
G1 X110.393 Y103.481 E.01806
G1 X109.732 Y103.399 E.02046
G1 X109.182 Y103.258 E.01746
G1 X108.689 Y103.068 E.01623
G1 X108.172 Y102.79 E.01805
G1 X107.694 Y102.447 E.01806
G1 X107.261 Y102.042 E.01822
G1 X106.889 Y101.594 E.01789
G1 X106.561 Y101.068 E.01906
G1 X106.323 Y100.552 E.01746
G1 X106.149 Y100.004 E.01765
G1 X106.044 Y99.426 E.01805
G1 X106.021 Y98.741 E.02107
G1 X106.075 Y98.175 E.01746
G1 X106.179 Y97.678 E.01562
G1 X106.372 Y97.123 E.01805
G1 X106.634 Y96.597 E.01805
G1 X106.961 Y96.108 E.01806
G1 X107.348 Y95.666 E.01807
G1 X107.831 Y95.246 E.01966
G1 X108.303 Y94.931 E.01745
G1 X108.798 Y94.682 E.01704
G1 X109.352 Y94.486 E.01806
G1 X110.012 Y94.354 E.02066
G1 X110.513 Y94.314 E.01546
G1 X111.1 Y94.34 E.01804
G1 X111.679 Y94.442 E.01807
G1 X112.24 Y94.616 E.01806
G1 X112.808 Y94.881 E.01925
G1 X113.288 Y95.185 E.01746
G1 X113.727 Y95.545 E.01745
G1 X114.131 Y95.972 E.01805
G1 X114.527 Y96.538 E.02124
G1 X114.786 Y97.033 E.01717
G1 X114.971 Y97.511 E.01574
G1 X115.113 Y98.081 E.01806
G1 X115.18 Y98.67 E.01821
G1 X115.173 Y99.252 E.0179
G1 X115.09 Y99.834 E.01806
G1 X114.911 Y100.455 E.01986
G1 X114.686 Y100.977 E.01746
G1 X114.411 Y101.451 E.01684
G1 X114.053 Y101.917 E.01805
G1 X113.639 Y102.334 E.01805
G1 X113.175 Y102.694 E.01806
G1 X112.893 Y102.86 E.01005
G1 X112.666 Y102.558 F10800
;TYPE:Inner wall
G1 F1200
G1 X112.515 Y102.648 E.00539
G1 X112.008 Y102.865 E.01696
G1 X111.502 Y103.011 E.01618
G1 X110.969 Y103.093 E.01658
G1 X110.429 Y103.105 E.01657
G1 X109.893 Y103.049 E.01657
G1 X109.368 Y102.924 E.01658
G1 X108.863 Y102.734 E.01658
G1 X108.387 Y102.48 E.01657
G1 X107.948 Y102.168 E.01657
G1 X107.548 Y101.798 E.01674
G1 X107.205 Y101.388 E.01641
G1 X106.901 Y100.904 E.01757
G1 X106.681 Y100.433 E.01598
G1 X106.519 Y99.932 E.01617
G1 X106.421 Y99.402 E.01657
G1 X106.391 Y98.864 E.01657
M73 P2 R9
G1 X106.43 Y98.326 E.01658
G1 X106.537 Y97.797 E.01658
G1 X106.711 Y97.286 E.01657
G1 X106.95 Y96.803 E.01657
G1 X107.248 Y96.353 E.01658
G1 X107.601 Y95.945 E.01657
G1 X108.046 Y95.556 E.01818
G1 X108.478 Y95.266 E.01597
G1 X108.929 Y95.035 E.01556
G1 X109.436 Y94.853 E.01657
G1 X109.963 Y94.738 E.01657
G1 X110.501 Y94.691 E.0166
G1 X111.039 Y94.712 E.01655
G1 X111.571 Y94.803 E.01658
G1 X112.087 Y94.961 E.01657
G1 X112.612 Y95.204 E.01777
G1 X113.053 Y95.479 E.01598
G1 X113.456 Y95.807 E.01597
G1 X113.828 Y96.197 E.01657
G1 X114.147 Y96.632 E.01657
G1 X114.408 Y97.105 E.01658
G1 X114.606 Y97.607 E.01658
G1 X114.739 Y98.129 E.01657
G1 X114.803 Y98.67 E.01673
G1 X114.799 Y99.204 E.01642
G1 X114.725 Y99.739 E.01658
G1 X114.584 Y100.259 E.01657
G1 X114.377 Y100.757 E.01658
G1 X114.108 Y101.225 E.01658
G1 X113.782 Y101.655 E.01657
G1 X113.404 Y102.039 E.01657
G1 X112.979 Y102.372 E.01658
G1 X112.701 Y102.538 E.00995
G1 E-.56 F1800
;WIPE_START
G1 F1200
G1 X112.515 Y102.648 E-.05173
G1 X112.008 Y102.865 E-.1325
G1 X111.785 Y102.93 E-.05578
;WIPE_END
G1 X109.867 Y101.518 Z.6 F10800
G1 Z.2 F720
G1 E.8 F1800
;TYPE:Outer wall
G1 F1200
G1 X109.695 Y101.474 E.00544
G1 X109.228 Y101.256 E.01583
G1 X108.859 Y101.001 E.0138
G1 X108.431 Y100.543 E.01924
G1 X108.239 Y100.268 E.01032
G1 X108.034 Y99.83 E.01486
G1 X107.903 Y99.284 E.01723
G1 X107.871 Y98.882 E.01238
G1 X107.916 Y98.402 E.01482
G1 X108.051 Y97.925 E.01523
G1 X108.255 Y97.503 E.01441
G1 X108.627 Y97.024 E.01862
G1 X108.884 Y96.776 E.01098
G1 X109.285 Y96.507 E.01482
G1 X109.784 Y96.299 E.01663
G1 X110.204 Y96.2 E.01324
G1 X110.876 Y96.185 E.02067
G1 X111.375 Y96.281 E.01559
G1 X111.838 Y96.467 E.01533
G1 X112.247 Y96.723 E.01482
G1 X112.649 Y97.104 E.01703
G1 X112.899 Y97.428 E.01258
G1 X113.118 Y97.847 E.01453
G1 X113.267 Y98.323 E.01531
G1 X113.327 Y98.795 E.01463
G1 X113.277 Y99.393 E.01844
G1 X113.194 Y99.747 E.01117
G1 X113.005 Y100.19 E.01482
G1 X112.703 Y100.632 E.01643
G1 X112.408 Y100.944 E.0132
G1 X111.872 Y101.304 E.01985
G1 X111.587 Y101.444 E.00975
G1 X111.124 Y101.578 E.01482
G1 X110.545 Y101.621 E.01784
G1 X110.163 Y101.593 E.01177
G1 X109.906 Y101.528 E.00815
G1 X109.779 Y101.884 F10800
;TYPE:Inner wall
G1 F1200
G1 X109.636 Y101.851 E.00451
G1 X109.131 Y101.635 E.01687
G1 X108.672 Y101.334 E.01686
G1 X108.274 Y100.956 E.01687
G1 X107.948 Y100.514 E.01687
G1 X107.679 Y99.958 E.01898
G1 X107.543 Y99.455 E.01603
G1 X107.495 Y98.949 E.01561
G1 X107.535 Y98.402 E.01687
G1 X107.67 Y97.87 E.01687
G1 X107.897 Y97.37 E.01687
G1 X108.209 Y96.918 E.01687
G1 X108.595 Y96.528 E.01687
G1 X109.016 Y96.231 E.01584
G1 X109.541 Y95.98 E.01788
G1 X110.072 Y95.839 E.01687
G1 X110.868 Y95.808 E.02449
G1 X111.433 Y95.908 E.01762
G1 X111.947 Y96.101 E.01687
G1 X112.401 Y96.371 E.01625
G1 X112.833 Y96.741 E.01747
G1 X113.178 Y97.168 E.01687
G1 X113.438 Y97.64 E.01656
G1 X113.618 Y98.168 E.01712
G1 X113.7 Y98.712 E.01691
G1 X113.684 Y99.26 E.01687
G1 X113.572 Y99.798 E.01687
G1 X113.383 Y100.27 E.01564
G1 X113.077 Y100.772 E.01807
G1 X112.708 Y101.179 E.01687
G1 X112.274 Y101.515 E.01687
G1 X111.787 Y101.769 E.01686
G1 X111.263 Y101.933 E.01687
G1 X110.719 Y102.002 E.01687
G1 X110.17 Y101.975 E.01687
G1 X109.818 Y101.893 E.01112
G1 E-.56 F1800
;WIPE_START
G1 F1200
G1 X109.636 Y101.851 E-.04486
G1 X109.131 Y101.635 E-.13174
G1 X108.91 Y101.49 E-.06341
;WIPE_END
G1 X114.205 Y96.965 Z.6 F10800
G1 Z.2 F720
G1 E.8 F1800
;TYPE:Bottom surface
;WIDTH:0.434778
G1 F3600
G1 X113.19 Y95.951 E.04581
G1 X112.847 Y95.677 E.014
G1 X112.417 Y95.416 E.01607
G1 X111.957 Y95.212 E.01607
G1 X111.873 Y95.188 E.00278
G1 X114.316 Y97.63 E.11029
G1 X114.328 Y97.661 E.00108
G1 X114.456 Y98.148 E.01606
G1 X114.482 Y98.35 E.00652
G1 X113.729 Y97.598 E.03399
G1 X113.689 Y97.51 E.00308
G1 X113.481 Y97.117 E.0142
G1 X113.442 Y97.051 E.00245
G1 X113.402 Y96.995 E.00218
G1 X113.123 Y96.638 E.01449
G1 X113.066 Y96.573 E.00276
G1 X113.023 Y96.532 E.0019
G1 X112.686 Y96.23 E.01444
G1 X112.649 Y96.199 E.00155
G1 X112.569 Y96.143 E.00311
G1 X112.157 Y95.889 E.01544
G1 X112.084 Y95.852 E.00264
G1 X111.916 Y95.785 E.00575
G1 X111.148 Y95.016 E.0347
G1 X110.977 Y94.989 E.00552
G1 X110.552 Y94.975 E.01357
G1 X111.137 Y95.56 E.0264
G1 X111.015 Y95.535 E.00396
G1 X110.935 Y95.526 E.0026
G1 X110.864 Y95.525 E.00226
G1 X110.555 Y95.532 E.00987
G1 X110.038 Y95.015 E.02334
G1 X109.973 Y95.021 E.00208
G1 X109.58 Y95.111 E.01288
G1 X110.028 Y95.559 E.02025
G1 X109.584 Y95.669 E.01462
G1 X109.165 Y95.25 E.01892
G1 X109.01 Y95.307 E.00527
G1 X108.785 Y95.424 E.0081
G1 X109.188 Y95.828 E.01822
G1 X109.014 Y95.906 E.00609
G1 X108.968 Y95.928 E.00164
G1 X108.887 Y95.977 E.00303
G1 X108.825 Y96.019 E.00239
G1 X108.435 Y95.629 E.0176
G1 X108.155 Y95.825 E.01092
G1 X108.114 Y95.862 E.00176
G1 X108.496 Y96.243 E.01724
G1 X108.483 Y96.252 E.00047
G1 X108.422 Y96.303 E.00256
G1 X108.208 Y96.51 E.0095
G1 X107.823 Y96.125 E.01739
G1 X107.778 Y96.166 E.00196
G1 X107.563 Y96.419 E.01059
G1 X107.945 Y96.801 E.01725
G1 X107.715 Y97.125 E.01269
G1 X107.329 Y96.739 E.01744
G1 X107.177 Y96.971 E.00886
G1 X107.122 Y97.086 E.00407
G1 X107.527 Y97.491 E.01829
G1 X107.448 Y97.657 E.00587
G1 X107.411 Y97.749 E.00316
G1 X107.372 Y97.89 E.00468
G1 X106.946 Y97.464 E.01924
G1 X106.808 Y97.88 E.014
G1 X107.259 Y98.332 E.0204
G1 X107.253 Y98.374 E.00136
G1 X107.213 Y98.84 E.01492
G1 X106.715 Y98.342 E.02249
G1 X106.704 Y98.397 E.00179
G1 X106.674 Y98.856 E.01468
G1 X107.481 Y99.662 E.0364
G1 E-.56 F1800
;WIPE_START
G1 F3600
G1 X106.773 Y98.955 E-.24
;WIPE_END
G1 X113.732 Y98.155 Z.6 F10800
G1 Z.2 F720
G1 E.8 F1800
G1 F3600
G1 X114.52 Y98.943 E.03561
G1 X114.52 Y99.151 E.00663
G1 X114.481 Y99.458 E.00988
G1 X113.98 Y98.957 E.0226
G1 X113.967 Y99.275 E.01016
G1 X113.961 Y99.344 E.00222
G1 X113.947 Y99.42 E.00244
G1 X113.937 Y99.468 E.00158
G1 X114.386 Y99.917 E.02029
G1 X114.328 Y100.137 E.00726
G1 X114.249 Y100.334 E.00678
G1 X113.832 Y99.918 E.01879
G1 X113.819 Y99.96 E.00142
G1 X113.803 Y100.002 E.00142
G1 X113.672 Y100.312 E.01075
G1 X114.076 Y100.716 E.01823
G1 X113.892 Y101.042 E.01196
G1 X113.874 Y101.067 E.001
G1 X113.479 Y100.672 E.01784
G1 X113.313 Y100.928 E.00972
G1 X113.281 Y100.973 E.00177
G1 X113.256 Y101.004 E.00127
G1 X113.637 Y101.385 E.0172
G1 X113.591 Y101.446 E.00243
G1 X113.371 Y101.673 E.01011
G1 X112.99 Y101.292 E.01721
G1 X112.913 Y101.374 E.00357
G1 X112.875 Y101.412 E.00174
G1 X112.805 Y101.471 E.00292
G1 X112.696 Y101.552 E.00434
G1 X113.08 Y101.936 E.01732
G1 X112.847 Y102.121 E.00948
M73 P3 R9
G1 X112.762 Y102.173 E.00318
G1 X112.376 Y101.786 E.01744
G1 X112.317 Y101.819 E.00216
G1 X112.009 Y101.973 E.011
G1 X112.417 Y102.382 E.01845
G1 X112.033 Y102.552 E.01341
G1 X111.607 Y102.126 E.01924
G1 X111.336 Y102.206 E.00902
G1 X111.239 Y102.228 E.00319
G1 X111.164 Y102.236 E.00242
G1 X111.614 Y102.687 E.02036
G1 X111.474 Y102.729 E.00467
G1 X111.154 Y102.781 E.01036
G1 X110.661 Y102.288 E.02227
G1 X110.602 Y102.287 E.00187
G1 X110.149 Y102.257 E.0145
G1 X110.065 Y102.246 E.0027
G1 X110.639 Y102.82 E.02591
G1 X110.474 Y102.825 E.00527
G1 X110.049 Y102.784 E.01363
G1 X109.273 Y102.008 E.03506
G1 X109.014 Y101.893 E.00904
G1 X108.968 Y101.87 E.00164
G1 X108.887 Y101.822 E.00302
G1 X108.505 Y101.562 E.01476
G1 X108.48 Y101.544 E.00098
G1 X108.42 Y101.494 E.00246
G1 X108.074 Y101.157 E.01544
G1 X108.023 Y101.102 E.00241
G1 X107.98 Y101.046 E.00226
G1 X107.697 Y100.648 E.01559
G1 X107.645 Y100.557 E.00335
G1 X107.487 Y100.222 E.01183
G1 X106.713 Y99.448 E.03493
G1 X106.8 Y99.896 E.01455
G1 X106.897 Y100.186 E.00978
G1 X109.313 Y102.603 E.10914
G1 X109.01 Y102.491 E.01033
G1 X108.564 Y102.258 E.01607
G1 X108.151 Y101.971 E.01606
G1 X107.884 Y101.728 E.01153
G1 X106.994 Y100.838 E.04019
; stop printing object 20251012_Laser_Lens_Standoff id:0 copy 0
M106 S255
;LAYER_CHANGE
;Z:0.4
;HEIGHT:0.2
;BEFORE_LAYER_CHANGE
;0.4
G92 E0

G1 E-.56 F1800
;WIPE_START
G1 F3600
G1 X107.701 Y101.545 E-.24
;WIPE_END
;AFTER_LAYER_CHANGE
;0.4
;_SET_FAN_SPEED_CHANGING_LAYER
M204 S1000
G1 X105.663 Y103.789 Z.8 F10800
G1 Z.4 F720
G1 E.8 F1800
;TYPE:Skirt
;WIDTH:0.42
G1 F1844
G1 X105.325 Y103.482 E.01404
G1 X104.477 Y102.267 E.04552
G1 X104.097 Y101.456 E.02751
G1 X103.823 Y100.604 E.02751
G1 X103.661 Y99.723 E.02751
G1 X103.613 Y98.8 E.02839
G1 X103.728 Y97.632 E.03607
G1 X103.946 Y96.764 E.02751
G1 X104.274 Y95.931 E.02751
G1 X104.706 Y95.146 E.02751
G1 X105.234 Y94.423 E.02751
G1 X105.85 Y93.774 E.02751
G1 X106.545 Y93.208 E.02751
G1 X107.306 Y92.736 E.02751
G1 X108.121 Y92.366 E.02751
G1 X108.977 Y92.102 E.02751
G1 X109.859 Y91.951 E.02751
G1 X110.848 Y91.915 E.0304
G1 X129.605 Y92.725 E.57687
G1 X141.039 Y93.769 E.35281
G1 X141.744 Y93.907 E.02209
G1 X142.572 Y94.184 E.02682
G1 X143.721 Y94.811 E.04019
G1 X144.712 Y95.664 E.04019
G1 X145.579 Y96.841 E.04491
G1 X146.102 Y98.04 E.04019
G1 X146.361 Y99.322 E.04019
G1 X146.381 Y112.195 E.39554
G1 X146.305 Y112.909 E.02209
G1 X146.102 Y113.758 E.02682
G1 X145.781 Y114.57 E.02682
G1 X145.35 Y115.329 E.02682
G1 X144.402 Y116.441 E.04491
G1 X143.353 Y117.223 E.04019
G1 X142.163 Y117.767 E.04019
G1 X141.469 Y117.955 E.02209
G1 X140.605 Y118.073 E.02682
G1 X127.732 Y118.069 E.39555
G1 X126.298 Y117.787 E.04491
G1 X125.488 Y117.461 E.02682
G1 X124.765 Y117.046 E.02561
G1 X106.545 Y104.59 E.67818
G1 X105.693 Y103.816 E.03537
; printing object 20251012_Laser_Lens_Standoff id:0 copy 0
G1 E-.56 F1800
;WIPE_START
G1 F3000
G1 X105.325 Y103.482 E-.11924
G1 X105.037 Y103.069 E-.12076
;WIPE_END
G1 X112.289 Y100.689 Z.8 F10800
G1 X114.046 Y100.112 Z.8
G1 Z.4 F720
G1 E.8 F1800
;TYPE:Internal solid infill
;WIDTH:0.650923
G1 F1844
G1 X114.207 Y99.487 E.03199
G1 X114.255 Y98.899 E.02921
G1 X114.223 Y98.451 E.02225
G1 X114.132 Y97.972 E.02416
G1 X113.976 Y97.493 E.02496
G1 X113.721 Y96.998 E.0276
G1 X113.338 Y96.48 E.03187
G1 X112.88 Y96.04 E.0315
G1 X112.33 Y95.681 E.03253
G1 X111.719 Y95.419 E.03296
G1 X111.183 Y95.291 E.02728
G1 X110.717 Y95.257 E.02317
G1 X110.19 Y95.269 E.02609
G1 X109.476 Y95.422 E.03618
G1 X108.909 Y95.656 E.03043
G1 X108.368 Y96.006 E.03189
G1 X107.878 Y96.46 E.03311
G1 X107.537 Y96.905 E.02778
G1 X107.211 Y97.535 E.03512
G1 X107.014 Y98.183 E.03356
G1 X106.947 Y98.796 E.03057
G1 X106.986 Y99.439 E.03189
G1 X107.13 Y100.051 E.03117
G1 X107.398 Y100.658 E.03285
G1 X107.767 Y101.209 E.03288
G1 X108.143 Y101.604 E.02703
M73 P4 R9
G1 X108.729 Y102.037 E.03609
G1 X109.312 Y102.321 E.03214
G1 X109.933 Y102.492 E.03188
G1 X110.604 Y102.554 E.0334
G1 X111.183 Y102.508 E.02879
G1 X111.844 Y102.334 E.03382
G1 X112.43 Y102.063 E.032
G1 X112.878 Y101.756 E.02693
G1 X113.412 Y101.232 E.03707
G1 X113.783 Y100.7 E.03211
G1 X114.03 Y100.149 E.02994
G1 E-.56 F1800
;WIPE_START
G1 F5921.024
G1 X113.783 Y100.7 E-.14502
G1 X113.556 Y101.025 E-.09498
;WIPE_END
G1 X112.854 Y102.872 Z.8 F10800
G1 Z.4 F720
G1 E.8 F1800
;TYPE:Outer wall
;WIDTH:0.449999
G1 F1844
G1 X112.35 Y103.12 E.01865
G1 X111.844 Y103.298 E.01779
G1 X111.272 Y103.421 E.01943
